X:180
T:Biaus cuers
C:Manuscript de Montpellier (XIIIe siècle)
R:Motet
M:6/8
L:1/8
Q:1/4=120
% Last note suggests Mizolydian mode tune
K:F 
V:1
f2f e2c | A/2c/2A2 G2z | A2=B c2d | f2e/2f/2 edz | 
e2f edc | d2e fed | ed=B ccA | G2A c2d | 
f/2e/2cA F2z | A2=B A2_B | c2d/2c/2 BAG | A2B/2A/2 G2z | 
A/2=B/2AG F2f | f/2e/2de f2z | g2e f2e | dcc/2=B/2 AGz | 
c2d e2f | ede/2f/2 e/2d/2cf | e/2d/2cc/2_B/2 A/2G/2AF | GA=B c3 |]
V:2
F3 A2z | A2c d2c | d2z cdA | F3 Acd | 
A2F A2c | _B2z BAc | d3 cdc | d2A F2G | 
F2z FFF | A3 cd_e | c2A c2d | c2z dcd | 
A3 FAc | d2A F2A | c2z BBA | c3 dcd | 
c2d A2F | G2z F2z | FFF2<A2 | cdd c3 |]





